X: 42
M:C
L:1/8
K:C
g2 eg f2 dB | c2 Ac B2 G2 |
(3gfg eg (3fef dB | ced^c d2 ef |
g2 eg f2 dB | c2 Ac B2 G2 |
(3gfg eg (3fef dB | ced^c d2  "Da Capo" =c2 :|


